X:1
T:Say, Are You Ready?
T:Tullius Clinton O’Kane
T:Say, Are You Ready?
T:Public Domain
T:Public Domain
C:Tullius Clinton O&#8217;Kane
Z:Public Domain
%%score ( 1 2 ) ( 3 4 )
L:1/8
M:6/8
K:D
V:1 treble 
V:2 treble 
V:3 bass 
V:4 bass 
V:1
 [FA]>[FA][FA] [FA]2 [FA] | [GB]>[GB][GB] [GB]2 [GB] | [FA]>[FA][FA] [GB][FA][DF] | %3
w: 1.~Should the death an- gel|knock at thy cham- ber,|In the still watch of to-|
w: 2.~Ma- ny sad spir- its|now are de- part- ing|In- to the world of des-|
w: 3.~Ma- ny re- deemed ones|now are as- cend- ing|In- to the man- sions of|
 [CE]3- [CE]2 z | [EG]>[EG][EG] (CD)[EG] | [DF][DF][DF] [DF] [FA]2 | [GB]>[GB][GB] [FA][Fd][Gc] | %7
w: night, *|Say, will your spir- * it|in- to tor- ment, Or|to the land of de- light?|
w: pair; *|Ev- ery brief mo- * ment|your doom near- er; Sin-|ner, O sin- ner, be- ware!|
w: light; *|Je- sus is plead- * ing,|tient- ly plead- ing, Oh,|let Him save you to- night.|
 [Fd]3- [Fd]2 z ||"^Refrain" [Gd]>[Ge][Gd] [Gd] [GB]2 | [FA]>[GB][FA] [FA] [DF]2 | %10
w: |||
w: Say, *|are you rea- dy? Oh,|are you rea- dy? If|
w: |||
 E[EA][Ac] [^Gd][Gc][GB] | (A2 E [EA]2) z | [FA]>[GB][FA] [FA] [DF]2 [DB]>[D^A][GB][GB] [Gd]2 | %13
w: |||
w: the death an- gel should call?|are * *|rea- dy? Oh, are you rea- dy? Mer- cy stands|
w: |||
 [Ec][GB][FA] [FA][GB][Ec] | [Fd]3- [Fd]2 |] %15
w: ||
w: wait- ing for all. * *||
w: ||
V:2
 x6 | x6 | x6 | x6 | x3 G2 x | x6 | x6 | x6 || x6 | x6 | E x5 | A3- x3 | x12 | x6 | x5 |] %15
w: ||||pass|||||||||||
w: ||||brings||||||Say,|you||||
w: ||||pa-|||||||||||
V:3
 [D,D]>[D,D][D,D] [D,D]2 [D,D] | [G,D]>[G,D][G,D] [G,D]2 [G,D] | %2
 [D,D]>[D,D][D,D] [D,D][D,D][D,A,] | [A,,A,]3- [A,,A,]2 z | [A,,A,]>[A,,A,][A,,A,] (A,,B,,)[C,A,] | %5
 [D,A,][D,A,][D,A,] [D,A,] [D,D]2 | [G,,D]>[G,,D][G,,D] [A,,D][A,,A,][A,,A,] | %7
 [D,A,]3- [D,A,]2 z || [G,B,]>[G,C][G,B,] [G,B,] [G,D]2 | [D,D]>[D,D][D,D] [D,D] [D,A,]2 | %10
 [E,C][E,C][E,E] [E,B,][E,E][E,D] | (A,,2 A,, [A,,C]2) z | %12
 [D,D]>[D,D][D,D] [D,D] [D,A,]2 [G,B,]>[G,C][G,D][G,D] [G,B,]2 | %13
 [A,,A,][A,,A,][A,,A,] [A,,A,][A,,A,][A,,A,] | [D,A,]3- [D,A,]2 |] %15
V:4
 x6 | x6 | x6 | x6 | x3 A,2 x | x6 | x6 | x6 || x6 | x6 | x6 | C3- x3 | x12 | x6 | x5 |] %15

